X: 70
T:Avalanche Clog
M:4/4
L:1/8
Z:abc by Bruce Osborne - bosborne@kos.net
K:A
C>AE>c A>EC>E|D>AF>d A3E|C>AE>c A>EC>E|F>dc>B A>GF>E|
C>AE>c A>EC>E|D>AF>d A3F/D/|E>cA>c E>AC>E|E>GB>G A3z:|
K:E
B>cB>G E>GB>d|c>ec>B A>ce>c|B>cB>G E>FG>E|F>B^A>c B2G=A|
B>cB>G E>GB>d|c>ec>B A>ce>c|B>eG>e B>^df>^d|e2g2 e2:|
